X:1
T:I Left my Love in a Myre. SenH.124
T:I Left my Love in a Myre. SenH.124
T:in Hand C
C:in Hand C
L:1/8
Q:1/4=100
M:4/4
K:Emin
V:1 treble 
V:1
 d2 | g4 (gaba) | g4 g2 (dB) | (A2 G2) (B2 d2) | e4- e2 g2 | (d2 e2) (g2 a2) | g2 (ga) (b2 a2) | %7
 g4 (e3 f) | Te6 d2 | g4 (gaba) | g4 g2 (dB) | (TA2 G2) (B2 d2) | e4- e2 g2 | (de) d2 (Bc) B2 | %14
 (AB) A2 G2 ef | g4 (Tf3 e) | e6 || (ba) | g4 (d2 e2) | d6 (ba) | g3 a g2 e2 | Td6 g2 | %22
 c'2 b2 c'2 e'2 | d'2 b2 a2 g2 | c'4 (b2 a2) | a6 (bc') | (d'c')(ba) (ga)(bc') | d'4 d'2 B2 | %28
 (A2 G2) (B2 d2) | e6 g2 | (d2 g2) (B2 g2) | (A2 B2) (A2 G2) | g4 (f3 e) | e6 |] %34

